X:1
T:Title
%%score { 1 | 2 }
L:1/8
M:4/4
K:F
V:1 treble nm="Grand Piano"
V:2 bass 
V:1
 z4 z2[Q:1/4=100] A2 | A3 G F2 B2 | A6 A2 | [EG]3 [E^F] [EG]2 [EA]2 | F6 A2 | A3 G F2 B2 | A6 A2 | %7
 G3 G A2 =B2 | [CEc]6 [Ec]2 | [Ec]3 [DEB] [CE]2 [DEB]2 | [CFA]6 [CFA]2 | %11
 [^CEA]3 [CE] [CEA]2 [EG]2 | [DF]6 [DF]2 | [EG]2 [EA]2 [EB]2 [EG]2 |[M:9/8] A2 B- B c2- c [DFB]2 | %15
[M:4/4] [CFA]3 [DFB] [CFA]2 [B,EG]2 |[M:3/4] [A,F]6 |[M:1/4] [Fc]2 | %18
[M:4/4] [Ec]3 [EG] [EG]2 [Ec]2 | c3 A A2 A2 | G3 e e2 d2 | [Ec]6 [Bc]2 | [Ac]3 A A2 A2 | %23
[M:9/8] [DG]2 [DA]- [DA] [DB]2- [DB] [Fd]2 |[M:4/4] [Fc]3 [Fd] [FA]2 [EG]2 |[M:3/4] [CF]6 |] %26
V:2
 z4 z2 [F,CF]2 | [F,CF]3 [F,B,F] [F,A,]2 [F,DF]2 | [F,CF]6 [F,CF]2 | %3
 [C,B,]3 [C,A,] [C,B,]2 [C,C]2 | [F,A,]6 [F,CF]2 | [F,CF]3 [F,B,F] [F,A,]2[K:treble] [F,DF]2 | %6
 [F,CF]6 [F,CF]2 | [G,E]3 [G,E] [G,F]2 [G,DF]2 | C,6 C,2 | C,3 C, C,2 C,2 | F,6 F,2 | %11
 A,,3 A,, A,,2 A,,2 | D,6 D,2 | C,2 C,2 [C,C]2 [C,C]2 | %14
[M:9/8] [F,CF]2 [F,G,F]- [F,G,F] [F,A,F]2- [F,A,F] B,,2 |[M:4/4] C,3 C, C,2 C,2 |[M:3/4] F,6 | %17
[M:1/4] [F,A,]2 |[M:4/4] [C,G,]3 [C,C] [C,C]2 [C,B,]2 | [F,A,F]3 [F,CF] [F,CF]2 [F,CF]2 | %20
 [G,CE]3 [G,CG] [G,CG]2 [G,=B,F]2 | [C,C]6 [E,C]2 | [F,C]3 [F,CF] [F,CF]2 [F,CF]2 | %23
[M:9/8] [B,,B,]2 [A,,^F,]- [A,,F,] [G,,G,]2- [G,,G,] [=B,,_A,]2 | %24
[M:4/4] [C,A,]3 [C,A,] [C,C]2 [C,B,]2 |[M:3/4] [F,A,]6 |] %26

